tela-icon-theme/src/scalable/devices/media-memory.svg

<svg xmlns="http://www.w3.org/2000/svg" xmlns:xlink="http://www.w3.org/1999/xlink" width="64" height="64" version="1"><defs><linearGradient id="a"><stop offset="0"/><stop offset="1" stop-opacity="0"/></linearGradient><linearGradient xlink:href="#a" id="b" x1="36.834" y1="56.066" x2="36.577" y2="8.126" gradientUnits="userSpaceOnUse"/></defs><g fill="#8e8e8e"><path d="M24 58h-2V6h2zM18 58h-2V6h2zM42 58h-2V6h2zM36 58h-2V6h2zM30 58h-2V6h2zM48 58h-2V6h2z"/><path d="M12 24v-2h40v2zM12 18v-2h40v2zM12 12v-2h40v2zM12 42v-2h40v2zM12 36v-2h40v2zM12 30v-2h40v2zM12 48v-2h40v2zM12 54v-2h40v2z"/></g><rect width="48" height="36" x="-56" y="-50" rx="2.5" ry="2.5" transform="matrix(0 -1 -1 0 0 0)" fill="#4f4f4f"/><path opacity=".4" fill="#40d85c" d="M41 14v12h-2V14zM41 28v6h-2v-6zM41 36v14h-2V36zM33 14v16h-2V14zM33 32v16h-2V32zM25 14v6h-2v-6zM25 22v6h-2v-6zM25 30v12h-2V30z"/><path d="M43.855 8a38.303 39.008 0 0 1 2.836 14.662A38.303 39.008 0 0 1 28.205 56H47.5c1.385 0 2.5-1.115 2.5-2.5v-43C50 9.115 48.885 8 47.5 8h-3.645z" fill="url(#b)" opacity=".25"/></svg>

<svg width="64" height="64" version="1" xmlns="http://www.w3.org/2000/svg" xmlns:xlink="http://www.w3.org/1999/xlink">
 <g fill="#8e8e8e">
  <path d="M24 58h-2V6h2zM18 58h-2V6h2zM42 58h-2V6h2zM36 58h-2V6h2zM30 58h-2V6h2zM48 58h-2V6h2z"/>
  <path d="m12 24v-2h40v2zm0-6v-2h40v2zm0-6v-2h40v2zm0 30v-2h40v2zm0-6v-2h40v2zm0-6v-2h40v2zm0 18v-2h40v2zm0 6v-2h40v2z"/>
 </g>
 <rect transform="matrix(0 -1 -1 0 0 0)" x="-56" y="-50" width="48" height="36" rx="2.5" ry="2.5" fill="#4f4f4f"/>
 <path d="m41 14v12h-2v-12zm0 14v6h-2v-6zm0 8v14h-2v-14zm-8-22v16h-2v-16zm0 18v16h-2v-16zm-8-18v6h-2v-6zm0 8v6h-2v-6zm0 8v12h-2v-12z" fill="#40d85c" opacity=".4"/>
</svg>
